assets/images/icons/library/play.svg

<?xml version="1.0" encoding="utf-8"?><!-- Uploaded to: SVG Repo, www.svgrepo.com, Generator: SVG Repo Mixer Tools -->
<svg width="800px" height="800px" viewBox="0 0 24 24" fill="none" xmlns="http://www.w3.org/2000/svg">
<path d="M5 4.98951C5 4.01835 5 3.53277 5.20249 3.2651C5.37889 3.03191 5.64852 2.88761 5.9404 2.87018C6.27544 2.85017 6.67946 3.11953 7.48752 3.65823L18.0031 10.6686C18.6708 11.1137 19.0046 11.3363 19.1209 11.6168C19.2227 11.8621 19.2227 12.1377 19.1209 12.383C19.0046 12.6635 18.6708 12.886 18.0031 13.3312L7.48752 20.3415C6.67946 20.8802 6.27544 21.1496 5.9404 21.1296C5.64852 21.1122 5.37889 20.9679 5.20249 20.7347C5 20.467 5 19.9814 5 19.0103V4.98951Z" stroke="#000000" stroke-width="2" stroke-linecap="round" stroke-linejoin="round"/>
</svg>

<svg xmlns="http://www.w3.org/2000/svg" width="800" height="800" fill="none" viewBox="0 0 24 24"><path stroke="#000" stroke-linecap="round" stroke-linejoin="round" stroke-width="2" d="M5 4.99c0-.972 0-1.457.202-1.725a1 1 0 0 1 .738-.395c.335-.02.74.25 1.548.788l10.515 7.01c.668.446 1.002.668 1.118.949a1 1 0 0 1 0 .766c-.116.28-.45.503-1.118.948l-10.515 7.01c-.809.54-1.213.809-1.548.789a1 1 0 0 1-.738-.395C5 20.467 5 19.98 5 19.01z"/></svg>
